img/svg/employment3.svg

<svg width="80" height="80" viewBox="0 0 80 80" fill="none" xmlns="http://www.w3.org/2000/svg">
<circle cx="40" cy="40" r="40" fill="#006AFF"/>
<path d="M25.333 52H30.6663V36H25.333V52ZM54.6663 37.3334C54.6663 35.8667 53.4663 34.6667 51.9997 34.6667H43.5863L44.853 28.5734L44.893 28.1467C44.893 27.6 44.6663 27.0934 44.3063 26.7334L42.893 25.3334L34.1197 34.12C33.6263 34.6 33.333 35.2667 33.333 36V49.3334C33.333 50.8 34.533 52 35.9997 52H47.9997C49.1063 52 50.053 51.3334 50.453 50.3734L54.4797 40.9734C54.5997 40.6667 54.6663 40.3467 54.6663 40V37.3334Z" fill="white"/>
</svg>

<svg width="80" height="80" viewBox="0 0 80 80" fill="none" xmlns="http://www.w3.org/2000/svg"><circle cx="40" cy="40" r="40" fill="#006AFF"/><path d="M25.333 52h5.333V36h-5.333v16zm29.333-14.667c0-1.466-1.2-2.666-2.666-2.666h-8.414l1.267-6.094.04-.426c0-.547-.227-1.054-.587-1.414l-1.413-1.4-8.773 8.787a2.607 2.607 0 00-.787 1.88v13.333C33.333 50.8 34.533 52 36 52h12a2.649 2.649 0 002.453-1.627l4.027-9.4c.12-.306.186-.626.186-.973v-2.667z" fill="#fff"/></svg>
